X:1
T:Fiorite valli
T:Fiorite valli
T:Gio.Girolamo Kapsperger
C:Gio.Girolamo Kapsperger
%%score [ 1 2 3 ] { 4 | 5 }
L:1/8
Q:1/4=120
M:3/2
K:F
V:1 treble nm="Soprano 1" snm="S 1"
V:2 treble nm="Soprano 2" snm="S 2"
V:3 bass nm="Bass" snm="B"
V:4 treble nm="BC" snm="BC"
V:5 bass 
V:1
 d4 d4 c4 | B8 B4 | c4 B4 B4 | A8 A4 | B4 c4 d4 | _e8 e4 | d4 B4 c4 | d8 d4 | c4 B4 B4 | A8 A4 | %10
w: Fio- ri- te|val- li,|cam- pa- gne'a-|me- ne,|vi- vi cris-|tal- li,|fe- li- ci'a-|re- ne,|ch'ior- ma ne-|mi- ca,|
w: L'in- fi- da'Eu-|ril- la,|poi che mi|pre- se,|no- va fa-|vil- la,|per al- tri'ac-|ce- se,|on- d'io do-|len- te,-|
 A4 d4 D4 | E8 E4 | G4 A6 =B2 | G8 G4 :: A4 A4 A4 | A8 A4 | d4 c4 A4 | =B8 B4 | c4 c4 c4 | c8 c4 | %20
w: d'u- ma no|pie- de,|qui non si|ve- de.|A voi che|fuo- ri|di tan- te'af-|fan- ni,|di tan- ti'ar-|do- ri,|
w: d'og- no'al- tro|be- ne,|per dei la|spe- ne.|Si che'a me|so- lo,|toc- can- do'in|sor- te,|pien d'og- ni|duo- lo,|
 c4 B4 G4 | A8 A4 | d4 d4 c4 | B8 B4 | c4 B4 B4 | A8 A4 | A4 d4 D4 | E8 E4 | G4 A6 =B2 | G8 G4 :| %30
w: me- na- te|gl'an- ni,|mi man- d'A-|mo- re,|ch'el mio do-|lo- re|vi sco- pr'in|fon- te,|con la mia|mor- te.|
w: ve- nir a|mor- te,|voi che qui|se- te,|om- be se-|cre- te,|con voi si|mo- ra,|ma fe- de'an-|co- ra.|
V:2
 B4 B4 A4 | G8 G4 | E4 F4 G4 | A8 A4 | G4 A4 =B4 | c8 c4 | F4 G4 A4 | B8 B4 | F4 F4 E4 | F8 F4 | %10
w: Fio- ri- te|val- li,|cam- pa- gne'a-|me- ne,|vi- vi cris-|tal- li,|fe- li- di'a-|re- ne,|ch'ior- ma ne-|mi- ca,|
w: L'in- fi- da'Eu-|ril- la,|poi che mi|pre- se,|no- va fa-|vil- la,|per al- tri'ac-|ce- se,|on- d'io do-|len- te,-|
 c4 B4 B4 | G8 G4 | D4 E4 ^F4 | G8 G4 :: ^F4 F4 F4 | ^F8 F4 | G4 G4 ^F4 | G8 G4 | A4 A4 A4 | %19
w: d'u- ma no|pie- de,|qui non si|ve- de.|A voi che|fuo- ri,|di tan- te'af-|fan- ni,|di tan- ti'ar-|
w: d'og- no'al- tro|be- ne,|per dei la|spe- ne.|Si che'a me|so- lo,|toc- can- do'in|sor- te,|pien d'og- ni|
 A8 A4 | F4 F4 E4 | F8 F4 | B4 B4 A4 | G8 G4 | E4 F4 G4 | A8 A4 | c4 B4 B4 | G8 G4 | D4 E4 ^F4 | %29
w: do- ri,|me- na- te|gl'an- ni|mi man- d'A-|mo- re,|ch'el mio do-|lo- re,|vi sco- pr'in|fon- te,|con la mia|
w: duo- lo,|ve- nir a|mor- te,|voi che qui|se- te,|om- bre se-|cre- te,|con voi si|mo- ra,|ma fe- de'an-|
 G8 G4 :| %30
w: mor- te.|
w: co- ra.|
V:3
 B,4 B,,4 F,4 | G,8 G,4 | C,4 D,4 E,4 | F,8 F,4 | G,4 F,4 D,4 | C,8 C,4 | D,4 _E,4 C,4 | %7
w: Fio- ri- te|val- li,|cam- pa- gne'a-|me- ne,|vi- vi cris-|tal- li,|fe- li- ci'a-|
w: L'in- fi- da'Eu-|ril- la,|poi che mi|pre- se,|no- va fa-|vil- la,|per al- tri'ac-|
 B,,8 B,,4 | A,,4 G,,4 G,4 | F,8 F,4 | F,4 B,4 B,,4 | C,8 C,4 | B,,4 C,4 D,4 | G,,8 G,,4 :: %14
w: re- ne,|ch'ior- ma ne-|mi- ca,|d'u- ma no|pie- de,|qui non si|ve- de.|
w: ce- se,|on- d'io do-|len- te,|d'og- ne'al- tro|be- ne,|per dei la|spe- ne.|
 D,4 D,4 D,4 | D,8 D,4 | B,,4 C,4 D,4 | G,,8 G,,4 | F,4 F,4 F,4 | F,8 F,4 | A,,4 B,,4 C,4 | %21
w: A voi che|fuo- ri|di tan- te'af-|fan- ni,|di tan- ti'ar-|do- ri,|me- na- te|
w: Si ch'a me|so- lo,|toc- can- do'in|sor- te,|pien d'og- ni|duo- lo,|ve- nir a|
 F,,8 F,,4 | B,4 B,,4 F,4 | G,8 G,4 | C,4 D,4 E,4 | F,8 F,4 | F,4 B,4 B,,4 | C,8 C,4 | %28
w: gl'an- ni,|mi man- d'A-|mo- re,|ch'el mio do-|lo- re,|vi sco- pr'in|fon- te,|
w: mor- te,|voi che qui|se- te,|om- bre s-|cre- te,|con voi si|mo- ra,|
 B,,4 C,4 D,4 | G,,8 G,,4 :| %30
w: con la mia|mor- te.|
w: ma fe- de'an-|co- ra.|
V:4
 [FBd]8 [Ac]4 | [DGB]12 | [EGc]4 [FA]4 [EGB]4 | [FAc]12 | [DB]4 [Ac]4 [=Bd]4 | [Gc_e]12 | %6
 [FA]4 [GB]4 [_Ec]4 | [FBd]12 | [Ec]4 [FB]4 [EB]4 | [FAc]12 | [Ac]4 [Fd]4 [DB]4 | [EGc]12 | %12
 [DG]4 [EA]4 [^Fd]4 | [EG=B]12 :: [^FAd]12 | [^FA]12 | [Gd]4 [Ec]4 [^FA]4 | [DG=B]12 | [FAc]12 | %19
 [FAc]12 | [Ec]4 [DF]4 [EG]4 | [CA]12 | [DFB]8 [Ac]4 | [DGB]12 | [Ec]4 [FB]4 [GB]4 | [CFA]12 | %26
 [Ac]4 [DB]4 [FA]4 | [EG]12 | [DGB]4 [EA]4 [^Fd]4 | [DG=B]12 :| %30
V:5
 B,4 B,,4 F,4 | G,12 | C,4 D,4 E,4 | F,12 | G,4 F,4 D,4 | C,12 | D,4 _E,4 C,4 | B,,12 | %8
 A,,4 G,,4 G,4 | F,12 | F,4 B,4 B,,4 | C,12 | B,,4 C,4 D,4 | [G,,G,]12 :: D,12 | D,12 | %16
 B,,4 C,4 D,4 | G,,12 | F,12 | F,12 | A,,4 B,,4 C,4 | F,,12 | B,4 B,,4 F,4 | G,12 | C,4 D,4 E,4 | %25
 F,12 | F,4 B,4 B,,4 | C,12 | B,,4 C,4 D,4 | [G,,G,]12 :| %30

